packages/core/src/svgs/eland.svg

<svg width="24" height="24" viewBox="0 0 24 24" fill="none" xmlns="http://www.w3.org/2000/svg">
<g clip-path="url(#clip0_31_9798)">
<path d="M0 0H24V24H0V0Z" fill="#F0F3FA"/>
<path d="M11.9486 6.62991L6.02571 8.85849C6.02272 8.85903 6.01964 8.85893 6.01668 8.85819C6.01372 8.85745 6.01096 8.85609 6.00857 8.8542L6 8.84563V8.83277C6.87429 2.78991 17.07 2.7642 18 8.7942C18.0043 8.83706 17.9871 8.84991 17.9486 8.83706L12.0343 6.62991C12.0068 6.61894 11.9761 6.61894 11.9486 6.62991Z" fill="#006666"/>
<path d="M17.3229 11.717C17.3121 11.7385 17.2938 11.7552 17.2715 11.7642L12.0258 14.327C12.0159 14.3323 12.0048 14.335 11.9936 14.335C11.9824 14.335 11.9714 14.3323 11.9615 14.327L6.72433 11.7642C6.70222 11.7549 6.68403 11.7382 6.67291 11.717C6.43719 11.207 6.24862 10.6842 6.10291 10.1442C6.10291 10.127 6.10719 10.1099 6.12433 10.1013L11.9529 7.91558C11.9778 7.9064 12.0052 7.9064 12.03 7.91558L17.8672 10.0884C17.8758 10.0884 17.8843 10.097 17.8843 10.1013C17.7451 10.6545 17.5558 11.1939 17.3186 11.7127L17.3229 11.717Z" fill="#006666"/>
<path d="M11.9786 18.9641C11.9841 18.9567 11.9871 18.9476 11.9871 18.9384C11.9882 18.9276 11.9851 18.9169 11.9786 18.9084C10.8814 17.7169 9.83572 16.4826 8.84143 15.2055C8.44264 14.6946 8.07621 14.1593 7.74429 13.6026C7.72715 13.5684 7.73572 13.5598 7.77 13.5769L11.9571 15.6212C11.9871 15.6341 12.0129 15.6341 12.0429 15.6212L16.2171 13.5898C16.2771 13.5598 16.29 13.5726 16.2557 13.6284C15.0771 15.5141 13.5343 17.2712 12.0214 18.9126C12.0148 18.9204 12.0111 18.9303 12.0111 18.9405C12.0111 18.9507 12.0148 18.9606 12.0214 18.9684C12.2786 19.2169 12.8357 19.8726 12.6171 20.2455C12.4329 20.5584 11.97 20.6569 11.6529 20.4941C10.9329 20.1212 11.6529 19.3026 11.9786 18.9641Z" fill="#006666"/>
</g>
<defs>
<clipPath id="clip0_31_9798">
<rect width="24" height="24" fill="white"/>
</clipPath>
</defs>
</svg>

<svg xmlns="http://www.w3.org/2000/svg" width="24" height="24" fill="none" viewBox="0 0 24 24"><g clip-path="url(#a)"><path fill="#F0F3FA" d="M0 0h24v24H0z"/><path fill="#066" d="M11.949 6.63 6.026 8.858a.02.02 0 0 1-.017-.004L6 8.846v-.013c.874-6.043 11.07-6.069 12-.039q.006.063-.051.043L12.034 6.63a.12.12 0 0 0-.085 0"/><path fill="#066" d="M17.323 11.717a.1.1 0 0 1-.052.047l-5.245 2.563a.07.07 0 0 1-.065 0l-5.237-2.563a.1.1 0 0 1-.051-.047 10 10 0 0 1-.57-1.573c0-.017.004-.034.021-.043l5.829-2.185a.1.1 0 0 1 .077 0l5.837 2.172c.009 0 .017.009.017.013a9.4 9.4 0 0 1-.565 1.612z"/><path fill="#066" d="M11.979 18.964a.04.04 0 0 0 .008-.026.04.04 0 0 0-.008-.03 59 59 0 0 1-3.138-3.703 16 16 0 0 1-1.097-1.602q-.025-.052.026-.026l4.187 2.044a.1.1 0 0 0 .086 0l4.174-2.031q.09-.045.039.038c-1.179 1.886-2.722 3.643-4.235 5.285a.043.043 0 0 0 0 .055c.258.249.815.905.596 1.277-.184.313-.647.412-.964.25-.72-.374 0-1.192.326-1.53"/></g><defs><clipPath id="a"><path fill="#fff" d="M0 0h24v24H0z"/></clipPath></defs></svg>
